lib/img/icons/ui/link-external.svg

<?xml version="1.0" encoding="utf-8"?>
<!-- Generated by IcoMoon.io -->
<!DOCTYPE svg PUBLIC "-//W3C//DTD SVG 1.1//EN" "http://www.w3.org/Graphics/SVG/1.1/DTD/svg11.dtd">
<svg version="1.1" xmlns="http://www.w3.org/2000/svg" xmlns:xlink="http://www.w3.org/1999/xlink" width="32" height="32" viewBox="0 0 32 32">
<path fill="rgb(0, 0, 0)" d="M26 30h-24v-24h14v-2h-16v28h28v-14h-2zM21 8c-8.285 0-15 6.717-15 15 0 0.336 0.029 0.668 0.051 1h4c-0.029-0.332-0.051-0.664-0.051-1 0-6.065 4.936-11 11-11 0.338 0 3.004 0 3.004 0l-6 6h4l7.996-8-7.996-8h-4l6 6c0 0-2.666 0-3.004 0z"></path>
</svg>

<svg xmlns="http://www.w3.org/2000/svg" width="32" height="32" viewBox="0 0 32 32" class="svg-icon">
    <path d="M26 30H2V6h14V4H0v28h28V18h-2zM21 8C12.715 8 6 14.717 6 23c0 .336.029.668.051 1h4A11.464 11.464 0 0 1 10 23c0-6.065 4.936-11 11-11h3.004l-6 6h4L30 10l-7.996-8h-4l6 6H21z"/>
</svg>
